static/assets/img/icons/theme/home/home.svg

<svg height="24" viewBox="0 0 24 24" width="24" xmlns="http://www.w3.org/2000/svg"><g fill="none" fill-rule="evenodd"><path d="m0 0h24v24h-24z" opacity="0"/><path d="m3.95709826 8.41510662 7.52145174-4.59644273c.3201124-.19562422.7227876-.19562422 1.0429 0l7.52145 4.59644168c.5945094.36331127.9571 1.00983097.9571 1.70656363v8.878395c0 1.1045695-.8954305 2-2 2l-14.00001845.0000031c-1.1045695 0-2-.8954305-2-2l.00001673-8.8784001c.00000107-.69673159.36259156-1.34324988.95709998-1.70656058zm6.04290174 4.58489338c-.55228475 0-1 .4477153-1 1v3c0 .5522847.44771525 1 1 1h4c.5522847 0 1-.4477153 1-1v-3c0-.5522847-.4477153-1-1-1z" fill="#000"/></g></svg>

<svg width="24px" height="24px" viewBox="0 0 24 24" version="1.1" xmlns="http://www.w3.org/2000/svg" xmlns:xlink="http://www.w3.org/1999/xlink">
    <title>Icon For Home</title>
    <g stroke="none" stroke-width="1" fill="none" fill-rule="evenodd">
        <rect opacity="0" x="0" y="0" width="24" height="24"></rect>
        <path d="M3.95709826,8.41510662 L11.47855,3.81866389 C11.7986624,3.62303967 12.2013376,3.62303967 12.52145,3.81866389 L20.0429,8.41510557 C20.6374094,8.77841684 21,9.42493654 21,10.1216692 L21,19.0000642 C21,20.1046337 20.1045695,21.0000642 19,21.0000642 L4.99998155,21.0000673 C3.89541205,21.0000673 2.99998155,20.1046368 2.99998155,19.0000673 L2.99999828,10.1216672 C2.99999935,9.42493561 3.36258984,8.77841732 3.95709826,8.41510662 Z M10,13 C9.44771525,13 9,13.4477153 9,14 L9,17 C9,17.5522847 9.44771525,18 10,18 L14,18 C14.5522847,18 15,17.5522847 15,17 L15,14 C15,13.4477153 14.5522847,13 14,13 L10,13 Z" fill="#000000"></path>
    </g>
</svg>
